Origami/48x48/apps/latte-dock.svg

<svg width="48" height="48" version="1.1" viewBox="0 0 48 48" xmlns="http://www.w3.org/2000/svg">
 <g transform="translate(0,-1004.3622)">
  <circle cx="24" cy="1028.362" r="20" style="fill:#d2a35c"/>
  <path d="m33.683594 1015.3622c-1.118881 0-2.193285 0.2954-3.222656 0.8867-1.006994 0.5685-1.958411 1.399-2.853516 2.4903-0.872727 1.0688-1.666728 2.3879-2.382813 3.957-0.716083 1.546-1.331016 3.2962-1.845703 5.2519-0.358041 1.387-0.716178 2.5587-1.074218 3.5137-0.358043 0.9551-0.727002 1.7502-1.107422 2.3867-0.827973-0.3183-1.645577-0.8795-2.451172-1.084-0.783217-0.2274-1.588045-0.3398-2.416016-0.3398-0.648951 0-1.242235 0.1019-1.779297 0.3066-0.514687 0.2046-0.961378 0.4543-1.341797 0.75-0.380421 0.2956-0.682475 0.6139-0.90625 0.9551-0.201399 0.3409-0.302734 0.9582-0.302734 1.2539 0 0.4775 0.224323 0.877 0.671875 1.1953 0.447553 0.3183 1.118567 0.4766 2.013672 0.4766 2.372027 0 4.374245-0.6263 6.007812-1.877 1.029371 0.4549 2.082125 0.8877 3.15625 1.2969 1.096504 0.3866 2.30472 0.5801 3.625 0.5801 1.499301 0 2.696692-0.3184 3.591797-0.9551 0.895105-0.6593 1.410203-1.5025 1.947266-2.7304 0.02237-0.1373-0.0101-0.2285-0.09961-0.2735-0.06713-0.068-0.146818-0.068-0.236328 0-0.380419 0.7731-0.660368 1.2644-1.242187 1.6738-0.581819 0.4091-1.4319 0.6133-2.550781 0.6133-1.342657 0-2.574479-0.1477-3.69336-0.4433-1.096504-0.3183-2.147304-0.6702-3.154297-1.0567 1.387413-1.6599 2.472643-4.0135 3.25586-7.0605 0.46993-1.9101 0.927447-3.5021 1.375-4.7754 0.447553-1.2734 0.928674-2.2847 1.443359-3.0352 0.514685-0.7731 1.075491-1.2083 1.679688-1.5039 0.626573-0.3183 1.364494-0.4765 2.214843-0.4765 0.626575 0 1.140174 0.1143 1.542969 0.3418 0.425175 0.2046 0.740007 0.4772 0.941406 0.8183 0.201403 0.3411 0.311615 0.6163 0.333985 1.0254 0.02238 0.4094-0.03175 1.2177-0.166016 1.627-0.02238 0.1144 0.0101 0.1932 0.09961 0.2382 0.111889 0.046 0.213225 0.035 0.302735-0.033 0.223777-0.3865 0.435321-1.2759 0.636719-1.8671 0.201395-0.6145 0.302733-1.1491 0.302733-1.6038 0-0.705-0.213497-1.2959-0.638672-1.7734-0.425174-0.5003-0.984027-0.75-1.677734-0.75zm-18.830078 18.1875c0.962238 0 1.868401 0.1353 2.71875 0.4082 0.85035 0.273 1.689605 0.8922 2.517578 1.2559-0.514685 0.5002-1.097143 0.8413-1.746094 1.0234-0.626573 0.1588-1.342842 0.2383-2.148438 0.2383-0.917481 0-1.633751-0.1476-2.148437-0.4434-0.492308-0.2955-0.738281-0.9709-0.738281-1.4258 0-0.7048 0.515551-1.0566 1.544922-1.0566zm3.146484 6.8125a2 2 0 0 0 -2 2 2 2 0 0 0 2 2 2 2 0 0 0 2 -2 2 2 0 0 0 -2 -2zm12 0a2 2 0 0 0 -2 2 2 2 0 0 0 2 2 2 2 0 0 0 2 -2 2 2 0 0 0 -2 -2zm-6 2a2 2 0 0 0 -2 2 2 2 0 0 0 2 2 2 2 0 0 0 2 -2 2 2 0 0 0 -2 -2z" style="opacity:.2"/>
  <path transform="translate(0,1004.3622)" d="m33.683594 10c-1.118881 0-2.193285 0.295419-3.222656 0.886719-1.006994 0.5685-1.958411 1.398934-2.853516 2.490234-0.872727 1.0688-1.666728 2.387931-2.382813 3.957031-0.716083 1.546-1.331016 3.296254-1.845703 5.251954-0.358041 1.386999-0.716178 2.558671-1.074218 3.513671-0.358043 0.9551-0.727002 1.750219-1.107422 2.386719-0.827973-0.3183-1.645577-0.879484-2.451172-1.083984-0.783217-0.2274-1.588045-0.339844-2.416016-0.339844-0.648951 0-1.242235 0.101941-1.779297 0.306641-0.514687 0.2046-0.961378 0.4543-1.341797 0.75-0.380421 0.2956-0.682475 0.613878-0.90625 0.955078-0.201399 0.3409-0.302734 0.958206-0.302734 1.253906 0 0.4775 0.224323 0.877012 0.671875 1.195313 0.447553 0.318299 1.118567 0.476562 2.013672 0.476562 2.372027 0 4.374245-0.626253 6.007812-1.876953 1.029371 0.4549 2.082125 0.887675 3.15625 1.296875 1.096504 0.3866 2.30472 0.580078 3.625 0.580078 1.499301 0 2.696692-0.318378 3.591797-0.955078 0.895105-0.6593 1.410203-1.502569 1.947266-2.730469 0.02237-0.1373-0.0101-0.228437-0.09961-0.273437-0.067129-0.068-0.146818-0.068-0.236328 0-0.380419 0.7731-0.660368 1.264428-1.242187 1.673828-0.581819 0.4091-1.4319 0.613281-2.550781 0.613281-1.342657 0-2.574479-0.147759-3.69336-0.443359-1.096504-0.3183-2.147304-0.670141-3.154297-1.056641 1.387413-1.6599 2.472643-4.013547 3.25586-7.060547 0.46993-1.9101 0.927447-3.502091 1.375-4.77539 0.447553-1.273401 0.928674-2.284657 1.443359-3.035157 0.514685-0.7731 1.075491-1.208306 1.679688-1.503906 0.626573-0.3183 1.364494-0.476563 2.214843-0.476563 0.626575 0 1.140174 0.114297 1.542969 0.341797 0.425175 0.2046 0.740007 0.47726 0.941406 0.81836 0.201403 0.3411 0.311615 0.61629 0.333985 1.02539 0.02238 0.4094-0.03175 1.217654-0.166016 1.626953-0.02238 0.114401 0.0101 0.193282 0.099609 0.238282 0.111889 0.046 0.213225 0.034797 0.302735-0.033203 0.223777-0.3865 0.435321-1.275988 0.636719-1.867188 0.201396-0.6143 0.302734-1.148815 0.302734-1.603515 0-0.705001-0.213497-1.295938-0.638672-1.773438-0.425174-0.5003-0.984027-0.75-1.677734-0.75zm-18.830078 18.1875c0.962238 0 1.868401 0.135303 2.71875 0.408203 0.85035 0.273 1.689605 0.892159 2.517578 1.255859-0.514685 0.5002-1.097143 0.841338-1.746094 1.023438-0.626573 0.1588-1.342842 0.238281-2.148438 0.238281-0.917481 0-1.633751-0.147559-2.148437-0.443359-0.492308-0.2955-0.738281-0.970881-0.738281-1.425781 0-0.7048 0.515551-1.056641 1.544922-1.056641zm3.146484 6.8125a2 2 0 0 0 -2 2 2 2 0 0 0 2 2 2 2 0 0 0 2 -2 2 2 0 0 0 -2 -2zm12 0a2 2 0 0 0 -2 2 2 2 0 0 0 2 2 2 2 0 0 0 2 -2 2 2 0 0 0 -2 -2zm-6 2a2 2 0 0 0 -2 2 2 2 0 0 0 2 2 2 2 0 0 0 2 -2 2 2 0 0 0 -2 -2z" style="fill:#ffffff"/>
  <path d="M 43.978516,1028.7802 A 20,20 0 0 1 24,1048.3622 20,20 0 0 1 4.0214844,1028.9442 20,20 0 0 0 4,1029.3622 a 20,20 0 0 0 20,20 20,20 0 0 0 20,-20 20,20 0 0 0 -0.02148,-0.582 z" style="opacity:.2"/>
  <path transform="translate(0,1004.3622)" d="M 24 4 A 20 20 0 0 0 4 24 A 20 20 0 0 0 4.0214844 24.582031 A 20 20 0 0 1 24 5 A 20 20 0 0 1 43.978516 24.417969 A 20 20 0 0 0 44 24 A 20 20 0 0 0 24 4 z" style="fill:#ffffff;opacity:.2"/>
 </g>
</svg>

<svg xmlns="http://www.w3.org/2000/svg" width="48" height="48" version="1.1" viewBox="0 0 48 48">
 <g transform="translate(0,-1004.3622)">
  <circle style="fill:#d2a35c" cx="24" cy="1028.362" r="20"/>
  <path style="opacity:0.2" d="m 33.683594,1015.3622 c -1.118881,0 -2.193285,0.2954 -3.222656,0.8867 -1.006994,0.5685 -1.958411,1.399 -2.853516,2.4903 -0.872727,1.0688 -1.666728,2.3879 -2.382813,3.957 -0.716083,1.546 -1.331016,3.2962 -1.845703,5.2519 -0.358041,1.387 -0.716178,2.5587 -1.074218,3.5137 -0.358043,0.9551 -0.727002,1.7502 -1.107422,2.3867 -0.827973,-0.3183 -1.645577,-0.8795 -2.451172,-1.084 -0.783217,-0.2274 -1.588045,-0.3398 -2.416016,-0.3398 -0.648951,0 -1.242235,0.1019 -1.779297,0.3066 -0.514687,0.2046 -0.961378,0.4543 -1.341797,0.75 -0.380421,0.2956 -0.682475,0.6139 -0.90625,0.9551 C 12.101335,1034.7773 12,1035.3946 12,1035.6903 c 0,0.4775 0.224323,0.877 0.671875,1.1953 0.447553,0.3183 1.118567,0.4766 2.013672,0.4766 2.372027,0 4.374245,-0.6263 6.007812,-1.877 1.029371,0.4549 2.082125,0.8877 3.15625,1.2969 1.096504,0.3866 2.30472,0.5801 3.625,0.5801 1.499301,0 2.696692,-0.3184 3.591797,-0.9551 0.895105,-0.6593 1.410203,-1.5025 1.947266,-2.7304 0.02237,-0.1373 -0.0101,-0.2285 -0.09961,-0.2735 -0.06713,-0.068 -0.146818,-0.068 -0.236328,0 -0.380419,0.7731 -0.660368,1.2644 -1.242187,1.6738 -0.581819,0.4091 -1.4319,0.6133 -2.550781,0.6133 -1.342657,0 -2.574479,-0.1477 -3.69336,-0.4433 -1.096504,-0.3183 -2.147304,-0.6702 -3.154297,-1.0567 1.387413,-1.6599 2.472643,-4.0135 3.25586,-7.0605 0.46993,-1.9101 0.927447,-3.5021 1.375,-4.7754 0.447553,-1.2734 0.928674,-2.2847 1.443359,-3.0352 0.514685,-0.7731 1.075491,-1.2083 1.679688,-1.5039 0.626573,-0.3183 1.364494,-0.4765 2.214843,-0.4765 0.626575,0 1.140174,0.1143 1.542969,0.3418 0.425175,0.2046 0.740007,0.4772 0.941406,0.8183 0.201403,0.3411 0.311615,0.6163 0.333985,1.0254 0.02238,0.4094 -0.03175,1.2177 -0.166016,1.627 -0.02238,0.1144 0.0101,0.1932 0.09961,0.2382 0.111889,0.046 0.213225,0.035 0.302735,-0.033 0.223777,-0.3865 0.435321,-1.2759 0.636719,-1.8671 C 35.898662,1018.8749 36,1018.3403 36,1017.8856 c 0,-0.705 -0.213497,-1.2959 -0.638672,-1.7734 -0.425174,-0.5003 -0.984027,-0.75 -1.677734,-0.75 z m -18.830078,18.1875 c 0.962238,0 1.868401,0.1353 2.71875,0.4082 0.85035,0.273 1.689605,0.8922 2.517578,1.2559 -0.514685,0.5002 -1.097143,0.8413 -1.746094,1.0234 -0.626573,0.1588 -1.342842,0.2383 -2.148438,0.2383 -0.917481,0 -1.633751,-0.1476 -2.148437,-0.4434 -0.492308,-0.2955 -0.738281,-0.9709 -0.738281,-1.4258 0,-0.7048 0.515551,-1.0566 1.544922,-1.0566 z M 18,1040.3622 a 2,2 0 0 0 -2,2 2,2 0 0 0 2,2 2,2 0 0 0 2,-2 2,2 0 0 0 -2,-2 z m 12,0 a 2,2 0 0 0 -2,2 2,2 0 0 0 2,2 2,2 0 0 0 2,-2 2,2 0 0 0 -2,-2 z m -6,2 a 2,2 0 0 0 -2,2 2,2 0 0 0 2,2 2,2 0 0 0 2,-2 2,2 0 0 0 -2,-2 z"/>
  <path style="fill:#ffffff" d="M 33.683594 10 C 32.564713 10 31.490309 10.295419 30.460938 10.886719 C 29.453944 11.455219 28.502527 12.285653 27.607422 13.376953 C 26.734695 14.445753 25.940694 15.764884 25.224609 17.333984 C 24.508526 18.879984 23.893593 20.630238 23.378906 22.585938 C 23.020865 23.972937 22.662728 25.144609 22.304688 26.099609 C 21.946645 27.054709 21.577686 27.849828 21.197266 28.486328 C 20.369293 28.168028 19.551689 27.606844 18.746094 27.402344 C 17.962877 27.174944 17.158049 27.0625 16.330078 27.0625 C 15.681127 27.0625 15.087843 27.164441 14.550781 27.369141 C 14.036094 27.573741 13.589403 27.823441 13.208984 28.119141 C 12.828563 28.414741 12.526509 28.733019 12.302734 29.074219 C 12.101335 29.415119 12 30.032425 12 30.328125 C 12 30.805625 12.224323 31.205137 12.671875 31.523438 C 13.119428 31.841737 13.790442 32 14.685547 32 C 17.057574 32 19.059792 31.373747 20.693359 30.123047 C 21.72273 30.577947 22.775484 31.010722 23.849609 31.419922 C 24.946113 31.806522 26.154329 32 27.474609 32 C 28.97391 32 30.171301 31.681622 31.066406 31.044922 C 31.961511 30.385622 32.476609 29.542353 33.013672 28.314453 C 33.036042 28.177153 33.003572 28.086016 32.914062 28.041016 C 32.846933 27.973016 32.767244 27.973016 32.677734 28.041016 C 32.297315 28.814116 32.017366 29.305444 31.435547 29.714844 C 30.853728 30.123944 30.003647 30.328125 28.884766 30.328125 C 27.542109 30.328125 26.310287 30.180366 25.191406 29.884766 C 24.094902 29.566466 23.044102 29.214625 22.037109 28.828125 C 23.424522 27.168225 24.509752 24.814578 25.292969 21.767578 C 25.762899 19.857478 26.220416 18.265487 26.667969 16.992188 C 27.115522 15.718787 27.596643 14.707531 28.111328 13.957031 C 28.626013 13.183931 29.186819 12.748725 29.791016 12.453125 C 30.417589 12.134825 31.15551 11.976562 32.005859 11.976562 C 32.632434 11.976562 33.146033 12.090859 33.548828 12.318359 C 33.974003 12.522959 34.288835 12.795619 34.490234 13.136719 C 34.691637 13.477819 34.801849 13.753009 34.824219 14.162109 C 34.846599 14.571509 34.792469 15.379763 34.658203 15.789062 C 34.635823 15.903463 34.668303 15.982344 34.757812 16.027344 C 34.869701 16.073344 34.971037 16.062141 35.060547 15.994141 C 35.284324 15.607641 35.495868 14.718153 35.697266 14.126953 C 35.898662 13.512653 36 12.978138 36 12.523438 C 36 11.818437 35.786503 11.2275 35.361328 10.75 C 34.936154 10.2497 34.377301 10 33.683594 10 z M 14.853516 28.1875 C 15.815754 28.1875 16.721917 28.322803 17.572266 28.595703 C 18.422616 28.868703 19.261871 29.487862 20.089844 29.851562 C 19.575159 30.351762 18.992701 30.6929 18.34375 30.875 C 17.717177 31.0338 17.000908 31.113281 16.195312 31.113281 C 15.277831 31.113281 14.561561 30.965722 14.046875 30.669922 C 13.554567 30.374422 13.308594 29.699041 13.308594 29.244141 C 13.308594 28.539341 13.824145 28.1875 14.853516 28.1875 z M 18 35 A 2 2 0 0 0 16 37 A 2 2 0 0 0 18 39 A 2 2 0 0 0 20 37 A 2 2 0 0 0 18 35 z M 30 35 A 2 2 0 0 0 28 37 A 2 2 0 0 0 30 39 A 2 2 0 0 0 32 37 A 2 2 0 0 0 30 35 z M 24 37 A 2 2 0 0 0 22 39 A 2 2 0 0 0 24 41 A 2 2 0 0 0 26 39 A 2 2 0 0 0 24 37 z" transform="translate(0,1004.3622)"/>
  <path style="opacity:0.2" d="M 43.978516,1028.7802 A 20,20 0 0 1 24,1048.3622 20,20 0 0 1 4.0214844,1028.9442 20,20 0 0 0 4,1029.3622 a 20,20 0 0 0 20,20 20,20 0 0 0 20,-20 20,20 0 0 0 -0.02148,-0.582 z"/>
  <path style="opacity:0.2;fill:#ffffff" d="M 24 4 A 20 20 0 0 0 4 24 A 20 20 0 0 0 4.0214844 24.582031 A 20 20 0 0 1 24 5 A 20 20 0 0 1 43.978516 24.417969 A 20 20 0 0 0 44 24 A 20 20 0 0 0 24 4 z" transform="translate(0,1004.3622)"/>
 </g>
</svg>
